communes/6135.svg

<?xml version="1.0" encoding="UTF-8" standalone="no"?>
<!-- Created with Inkscape (http://www.inkscape.org/) -->

<svg
   xmlns:dc="http://purl.org/dc/elements/1.1/"
   xmlns:cc="http://creativecommons.org/ns#"
   xmlns:rdf="http://www.w3.org/1999/02/22-rdf-syntax-ns#"
   xmlns:svg="http://www.w3.org/2000/svg"
   xmlns="http://www.w3.org/2000/svg"
   xmlns:sodipodi="http://sodipodi.sourceforge.net/DTD/sodipodi-0.dtd"
   xmlns:inkscape="http://www.inkscape.org/namespaces/inkscape"
   version="1.0"
   width="208.86046"
   height="244.65999"
   id="svg2780"
   inkscape:version="0.92.5 (2060ec1f9f, 2020-04-08)"
   sodipodi:docname="Leytron-blazon.svg">
  <metadata
     id="metadata27">
    <rdf:RDF>
      <cc:Work
         rdf:about="">
        <dc:format>image/svg+xml</dc:format>
        <dc:type
           rdf:resource="http://purl.org/dc/dcmitype/StillImage" />
        <dc:title></dc:title>
      </cc:Work>
    </rdf:RDF>
  </metadata>
  <sodipodi:namedview
     pagecolor="#ffffff"
     bordercolor="#666666"
     borderopacity="1"
     objecttolerance="10"
     gridtolerance="10"
     guidetolerance="10"
     inkscape:pageopacity="0"
     inkscape:pageshadow="2"
     inkscape:window-width="3287"
     inkscape:window-height="1417"
     id="namedview25"
     showgrid="false"
     inkscape:zoom="0.7071068"
     inkscape:cx="259.22388"
     inkscape:cy="65.913535"
     inkscape:window-x="-8"
     inkscape:window-y="-8"
     inkscape:window-maximized="1"
     inkscape:current-layer="svg2780"
     inkscape:measure-start="104.255,149.787"
     inkscape:measure-end="104.255,126.383"
     showguides="true"
     inkscape:object-paths="true"
     inkscape:snap-intersection-paths="true" />
  <defs
     id="defs2782" />
  <path
     id="path4212-7"
     style="fill:#009645;fill-opacity:1;fill-rule:evenodd;stroke:#000000;stroke-width:1.99999988;stroke-linecap:butt;stroke-miterlimit:4;stroke-dashoffset:0;stroke-opacity:1"
     d="M 204.09935,159.00304 207.86045,1 C 138.90698,1 69.953503,1 1.000029,1 l 3.7611,158.00304 c 1.64138,68.95393 2.88226,67.30563 99.669111,84.64438 96.78685,-17.33875 98.02773,-15.69045 99.66911,-84.64438 z"
     inkscape:connector-curvature="0"
     sodipodi:nodetypes="sccscs" />
  <path
     style="opacity:1;fill:#feeb00;fill-opacity:1;stroke:#000000;stroke-width:1.00157475;stroke-miterlimit:11;stroke-dasharray:none;stroke-dashoffset:4.57999992;stroke-opacity:1"
     d="m 69.953499,1 v 236.39225 l 34.476741,6.25517 34.47672,-6.25516 V 1 Z"
     id="path1145"
     inkscape:connector-curvature="0" />
  <path
     style="opacity:1;fill:#feeb00;fill-opacity:1;stroke:#000000;stroke-width:0.99999994;stroke-miterlimit:8;stroke-dasharray:none;stroke-dashoffset:4.57999992;stroke-opacity:1"
     d="M 63.146899,37.585138 42.005343,37.589771 35.476765,17.48148 28.948183,37.589765 7.8066264,37.585133 24.913303,50.007991 18.375682,70.113329 35.476765,57.682793 52.577849,70.113329 46.040234,50.007991 Z"
     id="path12002"
     inkscape:connector-curvature="0" />
  <path
     id="path997-1-1"
     style="opacity:1;fill:#000000;fill-opacity:1;stroke:#000000;stroke-width:1.00157475;stroke-miterlimit:11;stroke-dasharray:none;stroke-dashoffset:4.57999992;stroke-opacity:1"
     d="m 138.90696,31.330938 v 30.33092 L 104.43024,31.33092 69.953521,61.661858 V 31.330938 L 104.43024,1 Z"
     inkscape:connector-curvature="0"
     sodipodi:nodetypes="ccccccc" />
  <path
     id="path997-1-1-2"
     style="opacity:1;fill:#000000;fill-opacity:1;stroke:#000000;stroke-width:1.00157475;stroke-miterlimit:11;stroke-dasharray:none;stroke-dashoffset:4.57999992;stroke-opacity:1"
     d="M 138.90696,91.992816 V 122.32374 L 104.43024,91.992798 69.953517,122.32374 V 91.992816 L 104.43024,61.661877 Z"
     inkscape:connector-curvature="0"
     sodipodi:nodetypes="ccccccc" />
  <path
     id="path997-1-1-4"
     style="opacity:1;fill:#000000;fill-opacity:1;stroke:#000000;stroke-width:1.00157475;stroke-miterlimit:11;stroke-dasharray:none;stroke-dashoffset:4.57999992;stroke-opacity:1"
     d="m 138.90696,152.65466 v 30.33092 l -34.47672,-30.33094 -34.476722,30.33094 v -30.33092 l 34.476722,-30.33094 z"
     inkscape:connector-curvature="0"
     sodipodi:nodetypes="ccccccc" />
  <path
     id="path997-1-1-28"
     style="opacity:1;fill:#000000;fill-opacity:1;stroke:#000000;stroke-width:1.00157475;stroke-miterlimit:11;stroke-dasharray:none;stroke-dashoffset:4.57999992;stroke-opacity:1"
     d="m 138.90696,213.3165 v 24.27242 l -5.63911,1.09749 -28.83761,-25.36993 -28.787123,25.32551 -5.689597,-1.14146 V 213.3165 l 34.47672,-30.33094 z"
     inkscape:connector-curvature="0"
     sodipodi:nodetypes="ccccccccc" />
  <path
     id="path4212-7-1"
     style="fill:none;fill-opacity:1;fill-rule:evenodd;stroke:#000000;stroke-width:1.99999988;stroke-linecap:butt;stroke-miterlimit:4;stroke-dashoffset:0;stroke-opacity:1"
     d="m 204.09935,159.00304 3.7611,-158.00304166 c -68.95347,0 -137.906947,0 -206.860421,0 L 4.761129,159.00304 c 1.64138,68.95393 2.88226,67.30563 99.669111,84.64438 96.78685,-17.33875 98.02773,-15.69045 99.66911,-84.64438 z"
     inkscape:connector-curvature="0"
     sodipodi:nodetypes="sccscs" />
  <path
     style="opacity:1;fill:#feeb00;fill-opacity:1;stroke:#000000;stroke-width:0.99999994;stroke-miterlimit:8;stroke-dasharray:none;stroke-dashoffset:4.57999992;stroke-opacity:1"
     d="m 145.71358,37.585138 21.14156,0.0046 6.52858,-20.108291 6.52858,20.108285 21.14156,-0.0046 -17.10668,12.422858 6.53762,20.105338 -17.10108,-12.430536 -17.10109,12.430536 6.53762,-20.105338 z"
     id="path12002-7"
     inkscape:connector-curvature="0" />
</svg>

<?xml version="1.0" encoding="UTF-8"?>
<svg version="1.0" viewBox="0 0 208.86 244.66" xmlns="http://www.w3.org/2000/svg" xmlns:cc="http://creativecommons.org/ns#" xmlns:dc="http://purl.org/dc/elements/1.1/" xmlns:rdf="http://www.w3.org/1999/02/22-rdf-syntax-ns#">
<metadata>
<rdf:RDF>
<cc:Work rdf:about="">
<dc:format>image/svg+xml</dc:format>
<dc:type rdf:resource="http://purl.org/dc/dcmitype/StillImage"/>
<dc:title/>
</cc:Work>
</rdf:RDF>
</metadata>
<path d="m204.1 159 3.7611-158h-206.86l3.7611 158c1.6414 68.954 2.8823 67.306 99.669 84.644 96.787-17.339 98.028-15.69 99.669-84.644z" fill="#009645" fill-rule="evenodd" stroke="#000" stroke-width="2"/>
<path d="m69.953 1v236.39l34.477 6.2552 34.477-6.2552v-236.39z" fill="#feeb00" stroke="#000" stroke-dashoffset="4.58" stroke-miterlimit="11" stroke-width="1.0016"/>
<path d="m63.147 37.585-21.142 0.004633-6.5286-20.108-6.5286 20.108-21.142-0.004632 17.107 12.423-6.5376 20.105 17.101-12.431 17.101 12.431-6.5376-20.105z" fill="#feeb00" stroke="#000" stroke-dashoffset="4.58" stroke-miterlimit="8"/>
<path d="m138.91 31.331v30.331l-34.477-30.331-34.477 30.331v-30.331l34.477-30.331z" stroke="#000" stroke-dashoffset="4.58" stroke-miterlimit="11" stroke-width="1.0016"/>
<path d="m138.91 91.993v30.331l-34.477-30.331-34.477 30.331v-30.331l34.477-30.331z" stroke="#000" stroke-dashoffset="4.58" stroke-miterlimit="11" stroke-width="1.0016"/>
<path d="m138.91 152.65v30.331l-34.477-30.331-34.477 30.331v-30.331l34.477-30.331z" stroke="#000" stroke-dashoffset="4.58" stroke-miterlimit="11" stroke-width="1.0016"/>
<path d="m138.91 213.32v24.272l-5.6391 1.0975-28.838-25.37-28.787 25.326-5.6896-1.1415v-24.184l34.477-30.331z" stroke="#000" stroke-dashoffset="4.58" stroke-miterlimit="11" stroke-width="1.0016"/>
<path d="m204.1 159 3.7611-158h-206.86l3.7611 158c1.6414 68.954 2.8823 67.306 99.669 84.644 96.787-17.339 98.028-15.69 99.669-84.644z" fill="none" stroke="#000" stroke-width="2"/>
<path d="m145.71 37.585 21.142 0.0046 6.5286-20.108 6.5286 20.108 21.142-0.0046-17.107 12.423 6.5376 20.105-17.101-12.431-17.101 12.431 6.5376-20.105z" fill="#feeb00" stroke="#000" stroke-dashoffset="4.58" stroke-miterlimit="8"/>
</svg>
